X:1
T:Moon and Seven Stars
O:Skottland mfl
R:jig
M:6/8
L:1/8
K:D
"D"d2A A2F|"G"GAB "D"B2A|"G"Bcd efg|"A"fed cBA|
"D"d2A A2F|"G"GAB "D"B2A|"G"Bcd efg|"A"A2c "D"d3:|
|:"A"e2A A2A|efg g2f|efg fed|cde cBA|
"G"BGB "D"AFA|"G"BGB "D"AFA|"G"Bcd efg|"A"A2c "D"d3:|

